# multiple instruments playing simultaneously

# ex. 1
(quant! 95)
violin "vn1": o4 a2 > c < b1~4
violin "vn2": o4 d2   d   d1~4
viola:        o3 f+2  a   g1~4
cello:        o3 d2 < d   g1~4

# ex. 2
trumpet:  o4 c8 d e f g a b > c4.
trombone: o3 e8 f g a b > c d e4.
