# Clojure DSL

# this...
piano: o4 c1/g/>d/e

# ...is equivalent to this:
(part "piano"
  (octave 4)
  (chord
    (note (pitch :c))
    (note (pitch :g))
    (octave :up)
    (note (pitch :d))
    (note (pitch :e))))

